bestshop/images/icons/icon-res-guide-video-01_mo.svg

<svg xmlns="http://www.w3.org/2000/svg" width="120" height="120" viewBox="0 0 120 120">
  <g id="step01" transform="translate(-397 -408)">
    <rect id="사각형_829" data-name="사각형 829" width="120" height="120" transform="translate(397 408)" fill="none"/>
    <g id="그룹_435" data-name="그룹 435" transform="translate(-51.365 73)">
      <g id="패스_205" data-name="패스 205" transform="translate(472.756 364)" fill="#fff">
        <path d="M 70.71923828125 49.20711517333984 L 1.500004172325134 49.20711517333984 L 1.500004172325134 3.073159456253052 C 1.500004172325134 2.20571494102478 2.205715417861938 1.500003933906555 3.073159694671631 1.500003933906555 L 69.14607238769531 1.500003933906555 C 70.01351165771484 1.500003933906555 70.71923828125 2.20571494102478 70.71923828125 3.073159456253052 L 70.71923828125 49.20711517333984 Z" stroke="none"/>
        <path d="M 3.073158264160156 2.999996185302734 C 3.032814025878906 2.999996185302734 3 3.032817840576172 3 3.073158264160156 L 3 47.70711135864258 L 69.21923065185547 47.70711135864258 L 69.21923065185547 3.073158264160156 C 69.21923065185547 3.032817840576172 69.18641662597656 2.999996185302734 69.14607238769531 2.999996185302734 L 3.073158264160156 2.999996185302734 M 3.073158264160156 -3.814697265625e-06 L 69.14607238769531 -3.814697265625e-06 C 70.84333038330078 -3.814697265625e-06 72.21923065185547 1.375900268554688 72.21923065185547 3.073158264160156 L 72.21923065185547 50.70711135864258 L 0 50.70711135864258 L 0 3.073158264160156 C 0 1.375900268554688 1.375900268554688 -3.814697265625e-06 3.073158264160156 -3.814697265625e-06 Z" stroke="none" fill="#000"/>
      </g>
      <g id="사각형_352" data-name="사각형 352" transform="translate(462.366 412)" fill="#fff" stroke="#000" stroke-width="3">
        <path d="M1,0H92a1,1,0,0,1,1,1V12a3,3,0,0,1-3,3H3a3,3,0,0,1-3-3V1A1,1,0,0,1,1,0Z" stroke="none"/>
        <path d="M2,1.5H91a.5.5,0,0,1,.5.5V12A1.5,1.5,0,0,1,90,13.5H3A1.5,1.5,0,0,1,1.5,12V2A.5.5,0,0,1,2,1.5Z" fill="none"/>
      </g>
      <g id="그룹_432" data-name="그룹 432" transform="translate(479.297 379.366)">
        <g id="패스_216" data-name="패스 216" fill="#fff">
          <path d="M 9.987766265869141 18.97553634643555 C 5.031896114349365 18.97553634643555 0.9999962449073792 14.94363594055176 0.9999962449073792 9.987766265869141 C 0.9999962449073792 5.031896114349365 5.031896114349365 0.9999962449073792 9.987766265869141 0.9999962449073792 C 14.94363594055176 0.9999962449073792 18.97553634643555 5.031896114349365 18.97553634643555 9.987766265869141 C 18.97553634643555 14.94363594055176 14.94363594055176 18.97553634643555 9.987766265869141 18.97553634643555 Z" stroke="none"/>
          <path d="M 9.987766265869141 1.999996185302734 C 5.583295822143555 1.999996185302734 1.999996185302734 5.583295822143555 1.999996185302734 9.987766265869141 C 1.999996185302734 14.39223670959473 5.583295822143555 17.97553634643555 9.987766265869141 17.97553634643555 C 14.39223670959473 17.97553634643555 17.97553634643555 14.39223670959473 17.97553634643555 9.987766265869141 C 17.97553634643555 5.583295822143555 14.39223670959473 1.999996185302734 9.987766265869141 1.999996185302734 M 9.987766265869141 -3.814697265625e-06 C 15.50385665893555 -3.814697265625e-06 19.97553634643555 4.471675872802734 19.97553634643555 9.987766265869141 C 19.97553634643555 15.50385665893555 15.50385665893555 19.97553634643555 9.987766265869141 19.97553634643555 C 4.471675872802734 19.97553634643555 -3.814697265625e-06 15.50385665893555 -3.814697265625e-06 9.987766265869141 C -3.814697265625e-06 4.471675872802734 4.471675872802734 -3.814697265625e-06 9.987766265869141 -3.814697265625e-06 Z" stroke="none" fill="#000"/>
        </g>
        <g id="타원_48" data-name="타원 48" transform="translate(5.201 6.501)" stroke="#000" stroke-width="2">
          <circle cx="1.537" cy="1.537" r="1.537" stroke="none"/>
          <circle cx="1.537" cy="1.537" r="0.537" fill="none"/>
        </g>
        <g id="타원_49" data-name="타원 49" transform="translate(11.702 6.501)" stroke="#000" stroke-width="2">
          <circle cx="1.537" cy="1.537" r="1.537" stroke="none"/>
          <circle cx="1.537" cy="1.537" r="0.537" fill="none"/>
        </g>
        <path id="패스_152" data-name="패스 152" d="M3291,396.4a3.827,3.827,0,0,0,3.421,1.749A4.254,4.254,0,0,0,3298,396.4" transform="translate(-3284.635 -383.676)" fill="none" stroke="#000" stroke-linecap="round" stroke-linejoin="round" stroke-width="2"/>
      </g>
      <g id="그룹_433" data-name="그룹 433" transform="translate(518.459 379.366)">
        <g id="패스_208" data-name="패스 208" transform="translate(0)" fill="#fff">
          <path d="M 9.987766265869141 18.97553634643555 C 5.031896114349365 18.97553634643555 0.9999962449073792 14.94363594055176 0.9999962449073792 9.987766265869141 C 0.9999962449073792 5.031896114349365 5.031896114349365 0.9999962449073792 9.987766265869141 0.9999962449073792 C 14.94363594055176 0.9999962449073792 18.97553634643555 5.031896114349365 18.97553634643555 9.987766265869141 C 18.97553634643555 14.94363594055176 14.94363594055176 18.97553634643555 9.987766265869141 18.97553634643555 Z" stroke="none"/>
          <path d="M 9.987766265869141 1.999996185302734 C 5.583295822143555 1.999996185302734 1.999996185302734 5.583295822143555 1.999996185302734 9.987766265869141 C 1.999996185302734 14.39223670959473 5.583295822143555 17.97553634643555 9.987766265869141 17.97553634643555 C 14.39223670959473 17.97553634643555 17.97553634643555 14.39223670959473 17.97553634643555 9.987766265869141 C 17.97553634643555 5.583295822143555 14.39223670959473 1.999996185302734 9.987766265869141 1.999996185302734 M 9.987766265869141 -3.814697265625e-06 C 15.50385665893555 -3.814697265625e-06 19.97553634643555 4.471675872802734 19.97553634643555 9.987766265869141 C 19.97553634643555 15.50385665893555 15.50385665893555 19.97553634643555 9.987766265869141 19.97553634643555 C 4.471675872802734 19.97553634643555 -3.814697265625e-06 15.50385665893555 -3.814697265625e-06 9.987766265869141 C -3.814697265625e-06 4.471675872802734 4.471675872802734 -3.814697265625e-06 9.987766265869141 -3.814697265625e-06 Z" stroke="none" fill="#000"/>
        </g>
        <circle id="타원_48-2" data-name="타원 48" cx="1.537" cy="1.537" r="1.537" transform="translate(5.201 6.501)"/>
        <circle id="타원_49-2" data-name="타원 49" cx="1.537" cy="1.537" r="1.537" transform="translate(11.702 6.501)"/>
        <path id="패스_152-2" data-name="패스 152" d="M3291,396.4a3.827,3.827,0,0,0,3.421,1.749A4.254,4.254,0,0,0,3298,396.4" transform="translate(-3284.635 -383.676)" fill="none" stroke="#000" stroke-linecap="round" stroke-linejoin="round" stroke-width="2"/>
      </g>
      <ellipse id="타원_95" data-name="타원 95" cx="1.5" cy="1.501" rx="1.5" ry="1.501" transform="translate(501.363 388.237)"/>
      <ellipse id="타원_96" data-name="타원 96" cx="1.5" cy="1.501" rx="1.5" ry="1.501" transform="translate(507.365 388.237)"/>
      <ellipse id="타원_97" data-name="타원 97" cx="1.5" cy="1.501" rx="1.5" ry="1.501" transform="translate(513.366 388.237)"/>
    </g>
  </g>
</svg>

<svg xmlns="http://www.w3.org/2000/svg" width="120" height="120" viewBox="0 0 120 120">
    <path data-name="사각형 829" style="fill:none" d="M0 0h120v120H0z"/>
    <g data-name="그룹 435" transform="translate(-448.365 -335)">
        <g data-name="패스 205" style="fill:#fff">
            <path d="M70.72 49.207H1.5V3.073c0-.867.706-1.573 1.573-1.573h66.073c.868 0 1.573.706 1.573 1.573v46.134z" style="stroke:none" transform="translate(472.756 364)"/>
            <path d="M3.073 3A.073.073 0 0 0 3 3.073v44.634h66.22V3.073A.073.073 0 0 0 69.145 3H3.073m0-3h66.073a3.073 3.073 0 0 1 3.073 3.073v47.634H0V3.073A3.073 3.073 0 0 1 3.073 0z" style="fill:#000;stroke:none" transform="translate(472.756 364)"/>
        </g>
        <g data-name="사각형 352" style="stroke:#000;fill:#edcec9;stroke-width:3px">
            <path d="M1 0h91a1 1 0 0 1 1 1v11a3 3 0 0 1-3 3H3a3 3 0 0 1-3-3V1a1 1 0 0 1 1-1z" style="stroke:none" transform="translate(462.366 412)"/>
            <path d="M2 1.5h89a.5.5 0 0 1 .5.5v10a1.5 1.5 0 0 1-1.5 1.5H3A1.5 1.5 0 0 1 1.5 12V2a.5.5 0 0 1 .5-.5z" style="fill:none" transform="translate(462.366 412)"/>
        </g>
        <g data-name="그룹 432">
            <g data-name="패스 216" style="fill:#e1d0b6">
                <path d="M9.988 18.976C5.032 18.976 1 14.944 1 9.988 1 5.032 5.032 1 9.988 1c4.956 0 8.988 4.032 8.988 8.988 0 4.956-4.032 8.988-8.988 8.988z" style="stroke:none" transform="translate(479.297 379.366)"/>
                <path d="M9.988 2C5.583 2 2 5.583 2 9.988c0 4.404 3.583 7.988 7.988 7.988 4.404 0 7.988-3.584 7.988-7.988C17.976 5.583 14.392 2 9.988 2m0-2c5.516 0 9.988 4.472 9.988 9.988 0 5.516-4.472 9.988-9.988 9.988C4.472 19.976 0 15.504 0 9.988 0 4.472 4.472 0 9.988 0z" style="fill:#000;stroke:none" transform="translate(479.297 379.366)"/>
            </g>
            <g data-name="타원 48" transform="translate(484.498 385.867)" style="stroke-width:2px;stroke:#000">
                <circle cx="1.537" cy="1.537" r="1.537" style="stroke:none"/>
                <circle cx="1.537" cy="1.537" r=".537" style="fill:none"/>
            </g>
            <g data-name="타원 49" transform="translate(490.999 385.867)" style="stroke-width:2px;stroke:#000">
                <circle cx="1.537" cy="1.537" r="1.537" style="stroke:none"/>
                <circle cx="1.537" cy="1.537" r=".537" style="fill:none"/>
            </g>
            <path data-name="패스 152" d="M3291 396.4a3.827 3.827 0 0 0 3.421 1.749A4.254 4.254 0 0 0 3298 396.4" transform="translate(-2805.338 -4.31)" style="stroke-linecap:round;stroke-linejoin:round;stroke-width:2px;stroke:#000;fill:none"/>
        </g>
        <g data-name="그룹 433" transform="translate(518.459 379.366)">
            <g data-name="패스 208" style="fill:#fff">
                <path d="M9.988 18.976C5.032 18.976 1 14.944 1 9.988 1 5.032 5.032 1 9.988 1c4.956 0 8.988 4.032 8.988 8.988 0 4.956-4.032 8.988-8.988 8.988z" style="stroke:none"/>
                <path d="M9.988 2C5.583 2 2 5.583 2 9.988c0 4.404 3.583 7.988 7.988 7.988 4.404 0 7.988-3.584 7.988-7.988C17.976 5.583 14.392 2 9.988 2m0-2c5.516 0 9.988 4.472 9.988 9.988 0 5.516-4.472 9.988-9.988 9.988C4.472 19.976 0 15.504 0 9.988 0 4.472 4.472 0 9.988 0z" style="fill:#b833ff;stroke:none"/>
            </g>
            <circle data-name="타원 48" cx="1.537" cy="1.537" r="1.537" transform="translate(5.201 6.501)" style="fill:#b833ff"/>
            <circle data-name="타원 49" cx="1.537" cy="1.537" r="1.537" transform="translate(11.702 6.501)" style="fill:#b833ff"/>
            <path data-name="패스 152" d="M3291 396.4a3.827 3.827 0 0 0 3.421 1.749A4.254 4.254 0 0 0 3298 396.4" transform="translate(-3284.635 -383.676)" style="stroke:#b833ff;stroke-linecap:round;stroke-linejoin:round;stroke-width:2px;fill:none"/>
        </g>
        <ellipse data-name="타원 95" cx="1.5" cy="1.501" rx="1.5" ry="1.501" transform="translate(501.363 388.237)" style="fill:#afafaf"/>
        <ellipse data-name="타원 96" cx="1.5" cy="1.501" rx="1.5" ry="1.501" transform="translate(507.365 388.237)" style="fill:#afafaf"/>
        <ellipse data-name="타원 97" cx="1.5" cy="1.501" rx="1.5" ry="1.501" transform="translate(513.366 388.237)" style="fill:#afafaf"/>
    </g>
</svg>
